packages/ui-icons/svg/Line/rubric-dark.svg

<svg viewBox="0 0 1920 1920" version="1.1" xmlns="http://www.w3.org/2000/svg">
    <path d="M1344.9618,112.9406 C1321.5838,47.3226 1259.4658,-0.0004 1185.9418,-0.0004 L734.1768,-0.0004 C660.6518,-0.0004 598.5338,47.3226 575.1548,112.9406 L112.9998,112.9406 L112.9998,1919.9996 L1807.1178,1919.9996 L1807.1178,112.9406 L1344.9618,112.9406 Z M1694.1758,1807.0586 L225.9418,1807.0586 L225.9418,225.8816 L564.7648,225.8816 L564.7648,451.7656 L1355.3538,451.7656 L1355.3538,225.8816 L1694.1758,225.8816 L1694.1758,1807.0586 Z M677.7058,225.8816 L677.7058,169.4126 C677.7058,138.2406 703.0048,112.9406 734.1768,112.9406 L1185.9418,112.9406 C1217.1138,112.9406 1242.4118,138.2406 1242.4118,169.4126 L1242.4118,225.8816 L1242.4118,338.8246 L677.7058,338.8246 L677.7058,225.8816 Z M451.846,1016.471 L790.669,1016.471 L790.669,677.647 L451.846,677.647 L451.846,1016.471 Z M564.787,903.529 L677.728,903.529 L677.728,790.588 L564.787,790.588 L564.787,903.529 Z M903.611,790.588 L1468.318,790.588 L1468.318,677.647 L903.611,677.647 L903.611,790.588 Z M903.611,1355.294 L1468.318,1355.294 L1468.318,1242.353 L903.611,1242.353 L903.611,1355.294 Z M903.611,1016.471 L1242.434,1016.471 L1242.434,903.529 L903.611,903.529 L903.611,1016.471 Z M903.611,1581.177 L1242.434,1581.177 L1242.434,1468.236 L903.611,1468.236 L903.611,1581.177 Z M564.787,1468.235 L677.728,1468.235 L677.728,1355.294 L564.787,1355.294 L564.787,1468.235 Z M451.846,1581.177 L790.669,1581.177 L790.669,1242.353 L451.846,1242.353 L451.846,1581.177 Z" stroke="none" stroke-width="1" fill-rule="evenodd"/>
</svg>

<svg viewBox="0 0 1920 1920" xmlns="http://www.w3.org/2000/svg">
    <path d="M1344.962 112.94C1321.584 47.324 1259.466 0 1185.942 0H734.177c-73.525 0-135.643 47.323-159.022 112.94H113V1920h1694.118V112.94h-462.156Zm349.214 1694.119H225.942V225.882h338.823v225.884h790.589V225.882h338.822v1581.177ZM677.706 225.882v-56.47c0-31.171 25.299-56.471 56.47-56.471h451.766c31.172 0 56.47 25.3 56.47 56.472v169.412H677.706V225.882Zm-225.86 790.589h338.823V677.647H451.846v338.824Zm112.941-112.942h112.941V790.588H564.787v112.941Zm338.824-112.941h564.707V677.647H903.611v112.941Zm0 564.706h564.707v-112.941H903.611v112.941Zm0-338.823h338.823V903.529H903.611v112.942Zm0 564.706h338.823v-112.941H903.611v112.941Zm-338.824-112.942h112.941v-112.941H564.787v112.941Zm-112.941 112.942h338.823v-338.824H451.846v338.824Z" fill-rule="evenodd"/>
</svg>
